resources/haticons/SVG/disqus.svg

<!-- Generated by IcoMoon.io -->
<svg version="1.1" xmlns="http://www.w3.org/2000/svg" width="24" height="24" viewBox="0 0 24 24">
<title>disqus</title>
<path fill="#2e9fff" d="M12.438 23.654c-2.853 0-5.46-1.040-7.476-2.766l-4.962 0.68 1.917-4.733c-0.667-1.475-1.042-3.11-1.042-4.835 0-6.436 5.175-11.654 11.565-11.654 6.38 0 11.56 5.218 11.56 11.654 0 6.438-5.176 11.654-11.562 11.654zM18.753 11.967v-0.033c0-3.363-2.373-5.76-6.462-5.76h-4.414v11.656h4.35c4.12 0 6.525-2.5 6.525-5.863zM12.338 14.965h-1.29v-5.925h1.29c1.897 0 3.157 1.080 3.157 2.945v0.030c0 1.884-1.26 2.95-3.157 2.95z"></path>
</svg>

<svg xmlns="http://www.w3.org/2000/svg" width="24" height="24"><path fill="#2e9fff" d="M12.438 23.654c-2.853 0-5.46-1.04-7.476-2.766L0 21.568l1.917-4.733A11.7 11.7 0 0 1 .875 12C.875 5.564 6.05.346 12.44.346 18.82.346 24 5.564 24 12c0 6.438-5.176 11.654-11.562 11.654zm6.315-11.687v-.033c0-3.363-2.373-5.76-6.462-5.76H7.877V17.83h4.35c4.12 0 6.525-2.5 6.525-5.863zm-6.415 2.998h-1.29V9.04h1.29c1.897 0 3.157 1.08 3.157 2.945v.03c0 1.884-1.26 2.95-3.157 2.95z"/></svg>
